app/component-library/components/Icons/Icon/assets/student.svg

<svg width="24" height="24" viewBox="0 0 24 24" fill="none" xmlns="http://www.w3.org/2000/svg">
<path d="M17.1109 15.6402C17.7809 15.2002 18.6609 15.6802 18.6609 16.4802V17.7702C18.6609 19.0402 17.6709 20.4002 16.4809 20.8002L13.2909 21.8602C12.7309 22.0502 11.8209 22.0502 11.2709 21.8602L8.0809 20.8002C6.8809 20.4002 5.9009 19.0402 5.9009 17.7702V16.4702C5.9009 15.6802 6.7809 15.2002 7.4409 15.6302L9.5009 16.9702C10.2909 17.5002 11.2909 17.7602 12.2909 17.7602C13.2909 17.7602 14.2909 17.5002 15.0809 16.9702L17.1109 15.6402Z" fill="currentColor"/>
<path d="M20.2608 6.46L14.2708 2.53C13.1908 1.82 11.4108 1.82 10.3308 2.53L4.31078 6.46C2.38078 7.71 2.38078 10.54 4.31078 11.8L5.91078 12.84L10.3308 15.72C11.4108 16.43 13.1908 16.43 14.2708 15.72L20.0308 11.94V15C20.0308 15.41 20.3708 15.75 20.7808 15.75C21.1908 15.75 21.5308 15.41 21.5308 15V10.08C21.9308 8.79 21.5208 7.29 20.2608 6.46Z" fill="currentColor"/>
</svg>

<svg xmlns="http://www.w3.org/2000/svg" width="24" height="24" viewBox="0 0 24 24" fill="none"><path fill="currentColor" d="M17.11 15.64a1 1 0 0 1 1.55.84v1.29c0 1.27-.99 2.63-2.18 3.03l-3.19 1.06c-.56.19-1.47.19-2.02 0L8.08 20.8c-1.2-.4-2.18-1.76-2.18-3.03v-1.3c0-.79.88-1.27 1.54-.84l2.06 1.34c.79.53 1.79.79 2.79.79s2-.26 2.79-.79l2.03-1.33Z"/><path fill="currentColor" d="m20.26 6.46-5.99-3.93c-1.08-.71-2.86-.71-3.94 0L4.31 6.46c-1.93 1.25-1.93 4.08 0 5.34l1.6 1.04 4.42 2.88c1.08.71 2.86.71 3.94 0l5.76-3.78V15c0 .41.34.75.75.75s.75-.34.75-.75v-4.92c.4-1.29-.01-2.79-1.27-3.62Z"/></svg>
